X:1
T:Lobe den Herrn, Ihr, 87.87 D
T:Lobe den Herrn, Ihr, 87.87 D
T:Melchior Vulpius, 1609
T:Public Domain Courtesy of the Cyber Hymnal™
C:Melchior Vulpius, 1609
Z:Public Domain
Z:Courtesy of the Cyber Hymnal™
%%score ( 1 2 ) ( 3 4 )
L:1/8
M:3/4
K:F
V:1 treble 
V:2 treble 
V:3 bass 
V:4 bass 
V:1
 [Fc]2 [Fc]2 [Ec]2 | (A3 G) [CF]2 | (E2 F2) [=B,D]2 | C6 | [Cc]2 [Fc]2 [FA]2 | (d3 c) [DB]2 | %6
 (A2 G4) x2 | [A,F]4 z2 | [Fc]2 [Fc]2 [Ec]2 | (A3 G) [CF]2 | (E2 F2) [=B,D]2 | C6 | %12
 [Cc]2 [Fc]2 [FA]2 | (d3 c) [DB]2 | (A2 G4) x2 | [A,F]4 z2 | [CF]2 [DF]2 [EG]2 | [FA]4 [Fc]2 | %18
 [FB]4 [FA]2 | [EG]6 | [DF]2 [CG]2 [CA]2 | [CG]4 [DF]2 | E4 [=B,D]2 | C6 | [CF]2 [FA]2 [Fc]2 | %25
 (B3 A) [DG]2 | F4 [CE]2 | [CF]6 |] %28
V:2
 x6 | D4 x2 | C4 x2 | C6 | x6 | F4 x2 | C6 x2 | x6 | x6 | D4 x2 | C4 x2 | C6 | x6 | F4 x2 | C6 x2 | %15
 x6 | x6 | x6 | x6 | x6 | x6 | x6 | (D2 C2) x2 | C6 | x6 | F4 x2 | C2 D2 x2 | x6 |] %28
V:3
 [F,A,]2 [F,A,]2 [C,G,]2 | ([D,F,]3 [E,G,]) [F,A,]2 | ([C,G,]2 [F,,A,]2) [G,,G,]2 | [C,E,]6 | %4
 [F,A,]2 [F,A,]2 [F,C]2 | [B,,B,]3 [A,,C] [B,,F,]2 | F,4 (z2 E,2) | [F,,F,]4 z2 | %8
 [F,A,]2 [F,A,]2 [C,G,]2 | [D,F,]3 [E,G,] [F,A,]2 | ([C,G,]2 [F,,A,]2) [G,,G,]2 | [C,E,]6 | %12
 [F,A,]2 [F,A,]2 [F,C]2 | ([B,,B,]3 [A,,C]) [B,,F,]2 | F,4 (z2 E,2) | [F,,F,]4 z2 | %16
 [F,A,]2 [D,A,]2 [C,C]2 | [F,,C]4 [A,,C]2 | [B,,D]4 [F,C]2 | [C,C]6 | [D,A,]2 [E,G,]2 F,2 | %21
 [C,E,]4 [F,,A,]2 | [G,,G,]4 [G,,G,]2 | [C,E,]6 | [A,,F,]2 [F,,C]2 [A,,C]2 | %25
 ([B,,D]3 [F,,C]) [G,,B,]2 | ([A,,A,]2 G,4) | [F,,A,]6 |] %28
V:4
 x6 | x6 | x6 | x6 | x6 | x6 | F,,2 C,4 x2 | x6 | x6 | x6 | x6 | x6 | x6 | x6 | F,,2 C,4 x2 | x6 | %16
 x6 | x6 | x6 | x6 | x4 F,2 | x6 | x6 | x6 | x6 | x6 | x2 (B,,2 C,2) | x6 |] %28

